X:1
T:Neve non tocca
T:Neve non tocca
T:Madrigale
T:Lorenzo Perosi
C:Lorenzo Perosi
%%score [ 1 2 3 4 ]
L:1/8
Q:1/4=80
M:2/2
K:A
V:1 treble nm="Soprano"
V:2 treble nm="Alto"
V:3 treble-8 nm="Tenor"
V:4 bass nm="Bass"
V:1
!mp!"^Andantino" E2 A4 c2 | (c2 B2) A2 A2- | A2 A A B2 c2 | (e2 d2) B4 |!mf! B2 c4 d2 | %5
w: Ne- ve non|toc- * ca la|_ tu- a ve- ste~ap-|pa- * re|cin- gi~u- na|
 (B2 c4 d2) | B4 z4 |!p! A2 A2 G2 c2 | B4 A4 || z8 | z8 | z8 | z8 | z8 | z8 | z8 | z8 | %17
w: zo- * *|na|del co- lor del|ma- re.|||||||||
!mf! c2 c4 B2 | (f2 ed) c2 B2 | (c2 B4) d2 | (c2 B4) d2 | c8 | c4 z2 A2 | E4 ^D4 | (E4 ^D4) | %25
w: E~a quei che~a|tan- * * ta al-|tez- * za|t'ha _ le-|va-|ta a|tan- ta~al-|tez- *|
 E2!f! G2 A2 B2 | c4 c2 c2 | c8 | B4 z4 |"^rall." z2!p! F2 E2 A2 | G4 F4 || %31
w: za vol- gi gli|oc- chi so-|a-|vi|o~im- ma- co-|la- ta.|
"^a tempo"!mf! E2 A4 c2 | (c2 B2) A2 A2- | A2 A A B2 c2 | (e2 d2) B4 | B2 c4 d2 | %36
w: Più ti con-|tem- * plo e|_ dal ca- du- co|li- * mo|più li- be-|
!<(! B2 B2 (c2 d2) | B4!<)! z4 | z2!p! A2 G2 c2 | B4 A4 |!f! c2 c4 B2 | (f2 ed c2) B2 | (c2 B4 d2 | %43
w: ro mi- sen- *|to|e mi su-|bli- mo.|Più li- be-|ro _ _ _ mi|sen- * *|
 c2 B4 d2) | c2 c2 B2 A2 |!>(! (A8- | A4 G4)!>)! |!p! !fermata!A8 |] %48
w: |to e mi su-|bli-||mo.|
V:2
!mp! E2 E4 A2 | G4 F2 F2- | F2 F F G2 A2 | (E2 F2) G4 |!mf! G2 A4 F2 | (G2 A4 F2) | G4 z4 | %7
w: Ne- ve non|toc- ca la|_ tu- a ve- ste~ap-|pa- * re|cin- gi~u- na|zo- * *|na|
!p! F2 F2 E2 A2 | G4 A4 || z8 | z8 | z8 | z8 |!mf! A2 A4 F2 | (c2 BA) G2 F2 | G2 F4 A2 | %16
w: del co- lor del|ma- re.|||||E~a- quei che~a|tan- * * ta al-|tez- * za|
 (G2 F4) A2 | G4 F4- | F4 G4 | A4 G2 G2 | (A4 G4) | A8- | A4 B2 c2 | (B2 A4 F2 | B2 A4 F2) | %25
w: t'ha _ le-|va- ta|_ a|tan- ta al-|tez- *|za|_ t'ha le-|va- * *||
 G2!f! G2 A2 B2 | c4 c2 c2 | c8 | B4 z4 | z2!p! F2 E2 A2 | G4 F4 ||!mf! C2 E4 A2 | G4 F2 F2- | %33
w: ta vol- gi gli|oc- chi so-|a-|vi|o~im- ma- co-|la- ta.|Più ti con-|tem- plo e|
 F2 F F G2 A2 | A4 G4 | G2 A4 F2 | G2 G2 (A2 F2) | G4 z4 | z2!p! F2 E2 A2 | G4 F4 | z4!f! G4 | %41
w: _ dal ca- du- co|li- mo|più li- be-|ro mi- sen- *|to|e mi su-|bli- mo.|Più|
 F4 (A2 B2) | A4 G4 | A8 | A2 A2 G2 E2 | (F8- | F4 E4) |!p! !fermata!E8 |] %48
w: li- be- *|ro mi|sen-|to e mi su-|bli-||mo.|
V:3
!mp! c2 c4 e2 | (e2 d2) c2 c2- | c2 c c e2 e2 | (c2 d2) e4 |!mf! e2 e4 d2 | (e6 d2) | e4 z4 | %7
w: Ne- ve non|toc- * ca la|_ tu- a ve- ste~ap-|pa- * re|cin- gi~u- na|zo- *|na|
!p! c2 c2 c2 e2 | d4 c4 ||!mf! c2 c4 B2 | (f2 ed) c2 B2 | (c2 B4) d2 | (c2 B4) d2 | c4 F4 | %14
w: del co- lor del|ma- re.|E~a quei che~a|tan- * * ta al-|tez- * za|t'ha _ le-|va- ta|
 z2 F2 c2 ^d2 | (e4 ^d2 f2 | e4 ^d2 f2) | e4 =d4- | d2 B2 e4- | e8- | e8- | e4 A4 | z8 | z8 | z8 | %25
w: a tan ta~al-|tez- * *||za t'ha|_ le- va-|||* ta||||
 z2!f! B2 c2 d2 | e4 e2 e2 | e8 | d4 z4 | z2!p! A2 A2 c2 | B4 A4 ||!mf! A2 c4 e2 | (e2 d2) c2 c2- | %33
w: vol- gi gli|oc- chi so-|a-|vi|o~im- ma- co-|la- ta.|Più ti con-|tem- * plo e|
 c2 c c e2 e2 | f4 e4 | e2 e4 d2 | e2 e2 (e2 d2) | e4 z4 | z2!p! c2 c2 e2 | d4 c4 | z4!f! e4 | %41
w: _ dal ca- du- co|li- mo|più li- be-|ro mi- sen- *|to|e mi su-|bli- mo.|Più|
 d4 (e2 f2) | e8- | e2 e2 d2 f2 | e2 e2 d2 c2 | (d4 c4 | B8) |!p! !fermata!c8 |] %48
w: li- be- *|ro|_ mi sen- *|to e mi su-|bli- *||mo.|
V:4
!mp! A,2 A,4 A,2 | E,4 F,2 F,2- | F,2 F, F, E,2 A,2 | (C2 B,2) E,4 |!mf! E,2 A,4 B,2 | %5
w: Ne- ve non|toc- ca la|_ tu- a ve- ste~ap-|pa- * re|cin- gi~u- na|
 (E,2 A,4 B,2) | E,4 z4 |!p! F,2 F,2 C,2 A,,2 | E,4 A,,4 || z8 | z8 | z8 | z8 | z8 | z8 | z8 | z8 | %17
w: zo- * *|na|del co- lor del|ma- re.|||||||||
 z8 | z8 | z8 | z8 |!mf! A,2 A,4 F,2 | (C2 B,) A, G,2 F,2 | (G,2 F,4) A,2 | (G,4 F,4) | %25
w: ||||E~a quei che~a|tan- ta al- tez- za|t'ha _ le-|va- *|
 E,2!f! D,2 C,2 B,,2 | A,,4 A,,2 A,,2 | B,,8 | B,,4 z4 | z2!p! D,2 A,,2 A,,2 | C,4 F,4 || %31
w: ta vol- gi gli|oc- chi so-|a-|vi|o~im- ma- co-|la- ta.|
!mf! A,,2 A,,4 A,,2 | E,4 F,2 F,2- | F,2 F, F, E,2 C,2 | B,,4 E,4 | E,2 A,4 B,2 | %36
w: Più ti con-|tem- plo e|_ dal ca- du- co|li- mo|più li- be-|
 E,2 E,2 (A,2 B,2) | E,4 z4 | z2!p! F,2 C,2 A,,2 | E,4 F,4 | z8 |!f! B,,4 C,2 D,2 | E,8 | E,8 | %44
w: ro mi- sen- *|to|e mi su-|bli- mo.||Più li- be-|ro|mi|
 E,2 E,2 E,2 E,2 | (D,8 | E,8) |!p! !fermata!A,,8 |] %48
w: sen- to~e mi su-|bli-||mo.|

